svg/fluentui-system-icons/ic_fluent_window_new_24_filled.svg

<svg width="24" height="24" viewBox="0 0 24 24" fill="none" xmlns="http://www.w3.org/2000/svg">
<path d="M19 17.9751V17.8392C20.1745 17.3494 21 16.1902 21 14.8382V6.25C21 4.45507 19.5449 3 17.75 3H9.25C7.80398 3 6.57853 3.94437 6.15675 5.25H5.95588C5.04354 5.25 4.26793 5.57135 3.73399 6.20358C3.21573 6.81725 3 7.63484 3 8.5V17.25C3 18.3103 3.38287 19.2639 4.11066 19.9496C4.83555 20.6327 5.84332 20.9951 7 20.9951L10.9191 20.9952L14.9963 20.9999L14.9977 20.9999C15.9737 21.0045 16.9414 20.7995 17.6913 20.3191C18.4705 19.82 19 19.0247 19 17.9751ZM5.95588 6.75H6V14.8382C6 16.6332 7.45508 18.0882 9.25 18.0882H17.4958C17.4641 18.5061 17.254 18.8179 16.8822 19.0561C16.4486 19.3338 15.7919 19.5038 15.0037 19.4999L15.0009 19.4999L10.9191 19.4952L7 19.4951C6.15669 19.4951 5.53944 19.2349 5.13934 18.8579C4.74213 18.4837 4.5 17.9397 4.5 17.25V8.5C4.5 7.86516 4.65927 7.43275 4.87998 7.17142C5.08501 6.92865 5.41235 6.75 5.95588 6.75ZM12.0216 6.5H16.75C17.1642 6.5 17.5 6.83579 17.5 7.25V11.9785C17.5 12.3927 17.1642 12.7285 16.75 12.7285C16.3358 12.7285 16 12.3927 16 11.9785V9.06066L10.7803 14.2803C10.4874 14.5732 10.0126 14.5732 9.71967 14.2803C9.42678 13.9874 9.42678 13.5126 9.71967 13.2197L14.9393 8H12.0216C11.6073 8 11.2716 7.66421 11.2716 7.25C11.2716 6.83579 11.6073 6.5 12.0216 6.5Z" fill="#212121"/>
</svg>

<svg xmlns="http://www.w3.org/2000/svg" width="24" height="24"><path d="M19 17.975v-.136c1.174-.49 2-1.649 2-3V6.25A3.25 3.25 0 0 0 17.75 3h-8.5a3.251 3.251 0 0 0-3.093 2.25h-.201c-.912 0-1.688.321-2.222.954C3.216 6.817 3 7.634 3 8.5v8.75c0 1.06.383 2.014 1.11 2.7.726.683 1.733 1.045 2.89 1.045h3.92l4.076.005h.002c.976.005 1.943-.2 2.693-.68.78-.5 1.309-1.295 1.309-2.345ZM5.956 6.75H6v8.088a3.25 3.25 0 0 0 3.25 3.25h8.246c-.032.418-.242.73-.614.968-.433.278-1.09.448-1.878.444H15l-4.082-.005H7c-.843 0-1.46-.26-1.86-.637-.398-.374-.64-.918-.64-1.608V8.5c0-.635.16-1.067.38-1.329.205-.242.532-.421 1.076-.421Zm6.066-.25h4.728a.75.75 0 0 1 .75.75v4.729a.75.75 0 0 1-1.5 0V9.06l-5.22 5.22a.75.75 0 1 1-1.06-1.061L14.94 8h-2.918a.75.75 0 1 1 0-1.5Z"/></svg>
